X:27
T:Iomadh Rud Tha Dhith Orm
R:strathspey
S:Entered by Toby A. Rider, Los Angeles Scottish Fiddler's Association
M:4/4
L:1/8
K:D
A<A (B<d) f2 e<f| e>Bd>B G>A (3BAG| A2 (B<d) f2 e<f| e>Bd>B A2 A2:|!
=cc BB A2 A2|=cc B>A G>A (3BAG|=cc BB A2 (c>d)| e>ed>B A2A2:|
